icons-dark/mimetypes/16/text-x-tex.svg

<?xml version="1.0" encoding="UTF-8" standalone="no"?>

<!-- Created with Inkscape (http://www.inkscape.org/) -->
<svg width="16" version="1.1" xmlns="http://www.w3.org/2000/svg" height="16" viewBox="0 0 16 16" xmlns:inkscape="http://www.inkscape.org/namespaces/inkscape">
 <defs id="defs4"/>
 <metadata id="metadata7"/>
 <path inkscape:label="Capa 1" inkscape:groupmode="layer" style="fill:#8e44ad" id="rect4274" d="M 2 2 L 2 3 L 14 3 L 14 2 L 2 2 z M 6.2675781 4 L 6.2851562 4.4863281 L 9.7148438 9 L 6 13.445312 L 6 14 L 14 14 L 14 11.222656 L 13.427734 11.222656 C 13.427734 11.777956 13.577305 12.122478 13.089844 12.455078 C 12.555426 12.819978 11.851357 12.888672 11.232422 12.888672 L 8.2851562 12.888672 L 11.142578 9 L 8.2851562 4.5546875 L 9.9648438 4.5546875 C 11.155757 4.5546875 12.851039 4.4480437 13.322266 5.8398438 C 13.402826 6.0774437 13.407457 6.5276437 13.427734 6.7773438 L 14 6.7773438 L 14 4 L 6.2675781 4 z M 2 5 L 2 6 L 6 6 L 6 5 L 2 5 z M 2 7 L 2 8 L 7 8 L 7 7 L 2 7 z M 2 10 L 2 11 L 7 11 L 7 10 L 2 10 z M 2 12 L 2 13 L 6 13 L 6 12 L 2 12 z "/>
</svg>

<svg width="16" xmlns="http://www.w3.org/2000/svg" height="16" viewBox="0 0 16 16">
 <path fill="#8e44ad" d="m2 2v1h12v-1zm4.268 2l.018.486 3.43 4.514-3.715 4.445v.555h8v-2.777h-.572c0 .555.15.9-.338 1.232-.534.365-1.238.434-1.857.434h-2.947l2.857-3.889-2.857-4.445h1.68c1.191 0 2.886-.107 3.357 1.285.081.238.085.688.105.938h.572v-2.777zm-4.268 1v1h4v-1zm0 2v1h5v-1zm0 3v1h5v-1zm0 2v1h4v-1z"/>
</svg>
